icons/svg/transport/aerialway_cable_car.svg

<?xml version="1.0" encoding="UTF-8" standalone="no"?>
<!-- Created with Inkscape (http://www.inkscape.org/) -->

<svg
   xmlns:dc="http://purl.org/dc/elements/1.1/"
   xmlns:cc="http://creativecommons.org/ns#"
   xmlns:rdf="http://www.w3.org/1999/02/22-rdf-syntax-ns#"
   xmlns:svg="http://www.w3.org/2000/svg"
   xmlns="http://www.w3.org/2000/svg"
   xmlns:sodipodi="http://sodipodi.sourceforge.net/DTD/sodipodi-0.dtd"
   xmlns:inkscape="http://www.inkscape.org/namespaces/inkscape"
   version="1.0"
   width="580"
   height="580"
   id="svg2"
   sodipodi:version="0.32"
   inkscape:version="0.91 r"
   sodipodi:docname="aerialway_cable_car.svg"
   inkscape:output_extension="org.inkscape.output.svg.inkscape">
  <metadata
     id="metadata10">
    <rdf:RDF>
      <cc:Work
         rdf:about="">
        <dc:format>image/svg+xml</dc:format>
        <dc:type
           rdf:resource="http://purl.org/dc/dcmitype/StillImage" />
        <cc:license
           rdf:resource="http://web.resource.org/cc/PublicDomain" />
        <dc:language>en</dc:language>
        <dc:title></dc:title>
      </cc:Work>
    </rdf:RDF>
  </metadata>
  <sodipodi:namedview
     inkscape:window-height="1004"
     inkscape:window-width="1920"
     inkscape:pageshadow="2"
     inkscape:pageopacity="0.0"
     guidetolerance="10.0"
     gridtolerance="10.0"
     objecttolerance="10.0"
     borderopacity="1.0"
     bordercolor="#666666"
     pagecolor="#ffffff"
     id="base"
     showgrid="false"
     inkscape:zoom="0.5"
     inkscape:cx="431.74187"
     inkscape:cy="279.7016"
     inkscape:window-x="1680"
     inkscape:window-y="0"
     inkscape:current-layer="svg2"
     inkscape:window-maximized="1">
    <inkscape:grid
       type="xygrid"
       id="grid3779" />
  </sodipodi:namedview>
  <defs
     id="defs4">
    <inkscape:perspective
       sodipodi:type="inkscape:persp3d"
       inkscape:vp_x="0 : 290 : 1"
       inkscape:vp_y="0 : 1000 : 0"
       inkscape:vp_z="580 : 290 : 1"
       inkscape:persp3d-origin="290 : 193.33333 : 1"
       id="perspective12" />
    <style
       type="text/css"
       id="style6">
   
    .fil0 {fill:#EF7900}
   
  </style>
    <inkscape:perspective
       id="perspective6807"
       inkscape:persp3d-origin="29.116032 : 19.410688 : 1"
       inkscape:vp_z="58.232063 : 29.116032 : 1"
       inkscape:vp_y="0 : 1000 : 0"
       inkscape:vp_x="0 : 29.116032 : 1"
       sodipodi:type="inkscape:persp3d" />
    <inkscape:perspective
       id="perspective6954"
       inkscape:persp3d-origin="290 : 193.33333 : 1"
       inkscape:vp_z="580 : 290 : 1"
       inkscape:vp_y="0 : 1000 : 0"
       inkscape:vp_x="0 : 290 : 1"
       sodipodi:type="inkscape:persp3d" />
    <marker
       viewBox="0 0 10 10"
       refY="5"
       refX="10"
       orient="auto"
       markerWidth="4"
       markerUnits="strokeWidth"
       markerHeight="3"
       id="ArrowStart">
      <path
         id="path2295"
         d="M 10 0 L 0 5 L 10 10 z" />
    </marker>
    <marker
       viewBox="0 0 10 10"
       refY="5"
       refX="0"
       orient="auto"
       markerWidth="4"
       markerUnits="strokeWidth"
       markerHeight="3"
       id="ArrowEnd">
      <path
         id="path2292"
         d="M 0 0 L 10 5 L 0 10 z" />
    </marker>
    <inkscape:perspective
       id="perspective7597"
       inkscape:persp3d-origin="178.5405 : 158.483 : 1"
       inkscape:vp_z="357.08099 : 237.7245 : 1"
       inkscape:vp_y="0 : 1000 : 0"
       inkscape:vp_x="0 : 237.7245 : 1"
       sodipodi:type="inkscape:persp3d" />
  </defs>
  <g
     id="g1327">
    <path
       d="M 66.275,1.768 C 24.94,1.768 1.704,23.139 1.704,66.804 L 1.704,516.927 C 1.704,557.771 22.598,579.156 63.896,579.156 L 515.92,579.156 C 557.227,579.156 578.149,558.84 578.149,516.927 L 578.149,66.804 C 578.149,24.203 557.227,1.768 514.627,1.768 C 514.624,1.768 66.133,1.625 66.275,1.768 z"
       style="fill:#111111;stroke:#eeeeee;stroke-width:3.40799999"
       id="path1329" />
  </g>
  <g
     id="g2319"
     transform="translate(879.29125,36.805119)">
    <path
       id="path2323"
       style="fill:#ffffff;stroke:none"
       d="" />
  </g>
  <g
     id="g2325"
     transform="translate(879.29125,36.805119)">
    <path
       id="path2329"
       style="fill:#ffffff;stroke:none"
       d="" />
  </g>
  <path
     style="fill:#ffffff;fill-opacity:1;fill-rule:evenodd;stroke:none"
     d="M 38.455939,237.16398 541.54406,50.64531 541.23641,91.784705 38.855391,277.59627 Z"
     id="rect3480"
     inkscape:connector-curvature="0"
     sodipodi:nodetypes="ccccc" />
  <circle
     style="color:#000000;clip-rule:nonzero;display:inline;overflow:visible;visibility:visible;opacity:1;isolation:auto;mix-blend-mode:normal;color-interpolation:sRGB;color-interpolation-filters:linearRGB;solid-color:#000000;solid-opacity:1;fill:#ffffff;fill-opacity:1;fill-rule:nonzero;stroke:none;stroke-width:27.80186081;stroke-linecap:round;stroke-linejoin:round;stroke-miterlimit:4;stroke-dasharray:none;stroke-dashoffset:0;stroke-opacity:1;marker:none;color-rendering:auto;image-rendering:auto;shape-rendering:auto;text-rendering:auto;enable-background:accumulate"
     id="path4247"
     cx="250.47427"
     cy="100.09283"
     r="31.819805" />
  <circle
     style="color:#000000;clip-rule:nonzero;display:inline;overflow:visible;visibility:visible;opacity:1;isolation:auto;mix-blend-mode:normal;color-interpolation:sRGB;color-interpolation-filters:linearRGB;solid-color:#000000;solid-opacity:1;fill:#ffffff;fill-opacity:1;fill-rule:nonzero;stroke:none;stroke-width:27.80186081;stroke-linecap:round;stroke-linejoin:round;stroke-miterlimit:4;stroke-dasharray:none;stroke-dashoffset:0;stroke-opacity:1;marker:none;color-rendering:auto;image-rendering:auto;shape-rendering:auto;text-rendering:auto;enable-background:accumulate"
     id="path4247-0"
     cx="323.4068"
     cy="76.086739"
     r="31.819805" />
  <path
     style="color:#000000;font-style:normal;font-variant:normal;font-weight:normal;font-stretch:normal;font-size:medium;line-height:normal;font-family:sans-serif;text-indent:0;text-align:start;text-decoration:none;text-decoration-line:none;text-decoration-style:solid;text-decoration-color:#000000;letter-spacing:normal;word-spacing:normal;text-transform:none;direction:ltr;block-progression:tb;writing-mode:lr-tb;baseline-shift:baseline;text-anchor:start;white-space:normal;clip-rule:nonzero;display:inline;overflow:visible;visibility:visible;opacity:1;isolation:auto;mix-blend-mode:normal;color-interpolation:sRGB;color-interpolation-filters:linearRGB;solid-color:#000000;solid-opacity:1;fill:#ffffff;fill-opacity:1;fill-rule:nonzero;stroke:none;stroke-width:24.73438263;stroke-linecap:round;stroke-linejoin:round;stroke-miterlimit:4;stroke-dasharray:none;stroke-dashoffset:0;stroke-opacity:1;marker:none;color-rendering:auto;image-rendering:auto;shape-rendering:auto;text-rendering:auto;enable-background:accumulate"
     d="m 329.99609,193.72134 -44.59961,16.49414 -21.90625,105.6211 a 12.368428,12.368428 0 1 0 24.21875,5.02343 l 21.71875,-104.71679 22.08789,105.24414 a 12.368428,12.368428 0 1 0 24.20704,-5.08008 L 329.99609,193.72134 Z"
     id="path4350"
     inkscape:connector-curvature="0" />
  <path
     style="color:#000000;clip-rule:nonzero;display:inline;overflow:visible;visibility:visible;opacity:1;isolation:auto;mix-blend-mode:normal;color-interpolation:sRGB;color-interpolation-filters:linearRGB;solid-color:#000000;solid-opacity:1;fill:#ffffff;fill-opacity:1;fill-rule:nonzero;stroke:none;stroke-width:36.48400116;stroke-linecap:round;stroke-linejoin:round;stroke-miterlimit:4;stroke-dasharray:none;stroke-dashoffset:0;stroke-opacity:1;marker:none;color-rendering:auto;image-rendering:auto;shape-rendering:auto;text-rendering:auto;enable-background:accumulate"
     d="m 164.99219,317.73306 c -7.47434,0 -11.72635,6.57025 -13.49219,14.25 l -26.5,115.25 26.5,62.25 c 3.07427,7.22166 6.01785,14.25 13.49219,14.25 l 292.01562,0 c 7.47434,0 10.09578,-7.23286 13.49219,-14.25 l 26.5,-54.75 -26.5,-122.75 c -1.6614,-7.69573 -6.01785,-14.25 -13.49219,-14.25 l -292.01562,0 z m 222.72461,14.25781 61.5332,0 c 4.28413,0 6.50507,4.4899 7.73242,9.75 l 21,90 c 1.22735,5.2601 -3.44829,9.75 -7.73242,9.75 l -82.5332,0 c -4.28413,0 -7.73438,-4.34861 -7.73438,-9.75 l 0,-90 c 0,-5.40139 3.45025,-9.75 7.73438,-9.75 z m -62.02735,0.29297 33.03321,0 c 4.28413,0 7.73437,4.5734 7.73437,10.25586 l 0,157.80664 c 0,5.68246 -3.45024,10.25781 -7.73437,10.25781 l -33.03321,0 c -4.28413,0 -7.73242,-4.57535 -7.73242,-10.25781 l 0,-157.80664 c 0,-5.68246 3.44829,-10.25586 7.73242,-10.25586 z m -62.02539,0.3711 33.03321,0 c 4.28413,0 7.73242,4.57535 7.73242,10.25781 l 0,157.80664 c 0,5.68246 -3.44829,10.25586 -7.73242,10.25586 l -33.03321,0 c -4.28413,0 -7.73437,-4.5734 -7.73437,-10.25586 l 0,-157.80664 c 0,-5.68246 3.45024,-10.25781 7.73437,-10.25781 z m -90.52734,0.043 61.5332,0 c 4.28413,0 7.73438,4.34861 7.73438,9.75 l 0,90 c 0,5.40139 -3.45025,9.75 -7.73438,9.75 l -82.5332,0 c -4.28413,0 -8.95977,-4.4899 -7.73242,-9.75 l 21,-90 c 1.22735,-5.2601 3.44829,-9.75 7.73242,-9.75 z"
     id="rect4333"
     inkscape:connector-curvature="0" />
</svg>

<svg width="580" height="580" viewBox="0 0 580 580" fill="none" xmlns="http://www.w3.org/2000/svg">
<g clip-path="url(#clip0)">
<path d="M66.2751 1.76766C24.9401 1.76766 1.7041 23.1387 1.7041 66.8037V516.927C1.7041 557.771 22.5981 579.156 63.8961 579.156H515.92C557.227 579.156 578.149 558.84 578.149 516.927V66.8037C578.149 24.2027 557.227 1.76766 514.627 1.76766C514.624 1.76766 66.1331 1.62466 66.2751 1.76766Z" fill="#111111" stroke="#EEEEEE" stroke-width="3.408"/>
<path fill-rule="evenodd" clip-rule="evenodd" d="M38.4561 237.164L541.544 50.6455L541.237 91.7849L38.8555 277.596L38.4561 237.164Z" fill="white"/>
<path d="M250.474 131.913C268.048 131.913 282.294 117.667 282.294 100.093C282.294 82.5196 268.048 68.2734 250.474 68.2734C232.901 68.2734 218.654 82.5196 218.654 100.093C218.654 117.667 232.901 131.913 250.474 131.913Z" fill="white"/>
<path d="M323.407 107.906C340.98 107.906 355.227 93.66 355.227 76.0864C355.227 58.5128 340.98 44.2666 323.407 44.2666C305.833 44.2666 291.587 58.5128 291.587 76.0864C291.587 93.66 305.833 107.906 323.407 107.906Z" fill="white"/>
<path d="M329.996 193.722L285.397 210.216L263.49 315.837C263.134 317.437 263.1 319.092 263.389 320.706C263.678 322.32 264.285 323.86 265.174 325.237C266.064 326.614 267.219 327.8 268.571 328.727C269.923 329.654 271.446 330.302 273.051 330.635C274.656 330.968 276.312 330.979 277.921 330.666C279.531 330.354 281.062 329.724 282.426 328.815C283.789 327.905 284.959 326.734 285.866 325.368C286.773 324.002 287.4 322.47 287.709 320.86L309.428 216.144L331.516 321.388C331.83 322.996 332.46 324.527 333.37 325.89C334.281 327.253 335.453 328.421 336.819 329.327C338.185 330.233 339.717 330.859 341.327 331.167C342.937 331.476 344.592 331.461 346.196 331.125C347.8 330.788 349.321 330.136 350.671 329.206C352.021 328.277 353.173 327.088 354.059 325.709C354.945 324.331 355.549 322.789 355.835 321.175C356.12 319.561 356.082 317.907 355.723 316.308L329.996 193.722Z" fill="white"/>
<path d="M164.992 317.733C157.518 317.733 153.266 324.304 151.5 331.983L125 447.233L151.5 509.483C154.574 516.705 157.518 523.733 164.992 523.733H457.008C464.482 523.733 467.104 516.501 470.5 509.483L497 454.733L470.5 331.983C468.839 324.288 464.482 317.733 457.008 317.733H164.992ZM387.717 331.991H449.25C453.534 331.991 455.755 336.481 456.982 341.741L477.982 431.741C479.21 437.001 474.534 441.491 470.25 441.491H387.717C383.433 441.491 379.982 437.143 379.982 431.741V341.741C379.982 336.34 383.433 331.991 387.717 331.991ZM325.689 332.284H358.723C363.007 332.284 366.457 336.858 366.457 342.54V500.347C366.457 506.029 363.007 510.604 358.723 510.604H325.689C321.405 510.604 317.957 506.029 317.957 500.347V342.54C317.957 336.858 321.405 332.284 325.689 332.284ZM263.664 332.655H296.697C300.981 332.655 304.43 337.231 304.43 342.913V500.72C304.43 506.402 300.981 510.976 296.697 510.976H263.664C259.38 510.976 255.93 506.402 255.93 500.72V342.913C255.93 337.231 259.38 332.655 263.664 332.655ZM173.137 332.698H234.67C238.954 332.698 242.404 337.047 242.404 342.448V432.448C242.404 437.85 238.954 442.198 234.67 442.198H152.137C147.853 442.198 143.177 437.708 144.404 432.448L165.404 342.448C166.632 337.188 168.853 332.698 173.137 332.698Z" fill="white"/>
</g>
<defs>
<clipPath id="clip0">
<path d="M0 0H580V580H0V0Z" fill="white"/>
</clipPath>
</defs>
</svg>
